X:1
T:120 - Louvai Ao Senhor
T:Letra: Mary Elisabeth Servoss (1849 - ?)
T:Trad.: Salomão Luiz Ginsburg (1867-1927)
T:Música: Horatio Richmond Palmer (1834-1907)
M:3/4
L:1/8
Q:1/4=100
K:Bb
V:1
F2 | "Bb"d3 cB2 | "Eb"B3 AG2 | "Bb"F2 D2 "Eb"G2 | "Bb"G2 F3 F | D3 EF2 | "Eb"G3 AB2 | "C"d2 c3 G | "F"A3 zF2 | "Bb"d3 cB2 | "Eb"B3 AG2 | "Bb"F2 B2 d2 | "(Eb)"e2 "(Bb)"d2 d2 | "F"f3e "Bb"d2 | d3 cB2 | "Eb"c2 G2 "F7"A2 | "Bb"B4 || [M:6/8] F | "Bb"d3- d2 F | d3- d2d | dcd e2d | "F"c3-c2F | "F7"e3- e2F | e3- e2e | ede f2e | "Bb"d3 z2f | "G7"f3- (fe)d | "Cm"e3- e2e | "F7"e3- (ed)c | "Bb"d3 z2d | d3 "Eb"B2c | "Bb"d3 "(Bb7)"f2"(Eb)"e | "Bb/F"d3 "F7"c3 | "Bb"B3- HB2 |]
w: 1.~Lou-vai ao Se-nhor, o Deus O-ni-po-ten-te, Lou-vai, ó re-mi-dos, lou-vai ao Se-nhor! Ó ho-mens, Deus a-ma-vos e-ter-na-men-te, Pois pro-vas nos deu por Je-sus, Sal-va-dor.     Lou-vai,_ lou-vai,_ lou-vai nos-so Re-den-tor!_    Can-tai,_ can-tai,_ can-tai sem-preem seu lou-vor.        Je-sus__ so-freu_ por nós__ na cruz,   Lou-vai, e-xal-tai nos-so Sal-va-dor!_
w: 2.~Per-dão vos con-ce-deo Se-nhor po-de-ro-so, Que Cris-to por nós no ma-dei-roal-can-çou; Dei-xai vos-sos ví-cios eo mun-doen-ga-no-so, Fu-gi pa-ra Cris-to, que vos li-ber-tou!
w: 3.~Sim, Cris-to vos sal-va de to-daa mal-da-de, Vos li-vra dos ví-cios, da car-nee do mal, Vos ti-ra das tre-vas, vos dá li-ber-da-de E sal-va pra sem-pre! Quea-mor sem i-gual!
W: 
W: 
W: 1. Louvai ao Senhor, o Deus Onipotente,
W: Louvai, ó remidos, louvai ao Senhor!
W: Ó homens, Deus ama-vos eternamente,
W: Pois provas nos deu por Jesus, Salvador.
W: 
W:    (Estribilho)
W:    Louvai, louvai, louvai nosso Redentor!
W:    Cantai, cantai, cantai sempre em seu louvor.    
W:    Jesus sofreu por nós na cruz,
W:    Louvai, exaltai nosso Salvador!
W: 
W: 
W: 
W: 2. Perdão vos concede o Senhor poderoso,
W: Que Cristo por nós no madeiro alcançou;
W: Deixai vossos vícios e o mundo enganoso,
W: Fugi para Cristo, que vos libertou!
W: 
W: 3. Sim, Cristo vos salva de toda a maldade,
W: Vos livra dos vícios, da carne e do mal,
W: Vos tira das trevas, vos dá liberdade
W: E salva pra sempre! Que amor sem igual!
W:         
W: 				         
W:           





